;FLAVOR:Marlin
;TIME:5965
;Filament used: 2.65875m
;Layer height: 0.16
;MINX:89.73
;MINY:80.209
;MINZ:0.2
;MAXX:138.589
;MAXY:162.942
;MAXZ:34.92
;Generated with Cura_SteamEngine 4.6.2
M140 S50
M105
M190 S50
M104 S200
M105
M109 S200
M82 ;absolute extrusion mode
; Ender 3 Custom Start G-code
G92 E0 ; Reset Extruder
G28 ; Home all axes
G1 Z2.0 F3000 ; Move Z Axis up little to prevent scratching of Heat Bed
G1 X0.1 Y20 Z0.3 F5000.0 ; Move to start position
G1 X0.1 Y200.0 Z0.3 F1500.0 E15 ; Draw the first line
G1 X0.4 Y200.0 Z0.3 F5000.0 ; Move to side a little
G1 X0.4 Y20 Z0.3 F1500.0 E30 ; Draw the second line
G92 E0 ; Reset Extruder
G1 Z2.0 F3000 ; Move Z Axis up little to prevent scratching of Heat Bed
G1 X5 Y20 Z0.3 F5000.0 ; Move over to prevent blob squish
G92 E0
G92 E0
G1 F2700 E-5
;LAYER_COUNT:208
;LAYER:0
M107
G0 F6000 X101.788 Y87.77 Z0.2
;TYPE:SKIRT
G1 F2700 E0
G1 F1200 X102.375 Y87.09 E0.02988
G1 X103.452 Y85.977 E0.08139
G1 X104.153 Y85.335 E0.11301
G1 X105.328 Y84.385 E0.16326
G1 X106.078 Y83.849 E0.19392
G1 X107.351 Y83.048 E0.24395
G1 X108.092 Y82.636 E0.27215
G1 X109.543 Y81.93 E0.32582
G1 X110.477 Y81.548 E0.35938
G1 X111.921 Y81.064 E0.41003
G1 X112.817 Y80.822 E0.4409
G1 X114.269 Y80.521 E0.49022
G1 X114.933 Y80.413 E0.5126
G1 X115.5 Y80.349 E0.53158
G1 X116.721 Y80.238 E0.57235
G1 X117.641 Y80.209 E0.60297
G1 X119.17 Y80.251 E0.65384
G1 X120.131 Y80.337 E0.68593
G1 X121.693 Y80.575 E0.73848
G1 X122.574 Y80.762 E0.76844
G1 X123.943 Y81.136 E0.81564
G1 X124.789 Y81.42 E0.84532
G1 X126.326 Y82.036 E0.9004
G1 X127.209 Y82.456 E0.93292
G1 X128.573 Y83.213 E0.9848
G1 X129.367 Y83.719 E1.01612
G1 X130.597 Y84.611 E1.06665
G1 X131.279 Y85.166 E1.0959
G1 X132.296 Y86.095 E1.14171
G1 X132.899 Y86.711 E1.17038
G1 X134.018 Y87.987 E1.22683
G1 X134.639 Y88.796 E1.26075
G1 X135.499 Y90.083 E1.31224
G1 X135.94 Y90.83 E1.34109
G1 X136.621 Y92.145 E1.39034
G1 X137 Y92.997 E1.42136
G1 X137.489 Y94.303 E1.46774
G1 X137.741 Y95.105 E1.4957
G1 X138.149 Y96.7 E1.55046
G1 X138.338 Y97.714 E1.58476
G1 X138.535 Y99.375 E1.6404
G1 X138.589 Y100.3 E1.67121
G1 X138.588 Y101.619 E1.71508
G1 X138.575 Y102.066 E1.72996
G1 X138.555 Y102.41 E1.74142
G1 X138.514 Y102.872 E1.75685
G1 X138.368 Y104.108 E1.79824
G1 X138.216 Y104.972 E1.82742
G1 X137.839 Y106.581 E1.88238
G1 X137.56 Y107.51 E1.91465
G1 X137.058 Y108.866 E1.96274
G1 X136.684 Y109.717 E1.99365
G1 X135.983 Y111.084 E2.04475
G1 X135.552 Y111.821 E2.07315
G1 X134.681 Y113.141 E2.12575
G1 X134.172 Y113.827 E2.15416
G1 X133.95 Y114.093 E2.16568
G1 X133.12 Y115.057 E2.20799
G1 X132.511 Y115.689 E2.23718
G1 X131.311 Y116.801 E2.2916
G1 X130.572 Y117.406 E2.32336
G1 X129.334 Y118.299 E2.37413
G1 X128.533 Y118.806 E2.40566
G1 X127.169 Y119.557 E2.45745
G1 X127.061 Y119.608 E2.46142
G1 X128.613 Y120.782 E2.52615
G1 X129.333 Y121.399 E2.55769
G1 X130.746 Y122.767 E2.6231
G1 X131.397 Y123.48 E2.65521
G1 X132.632 Y125.014 E2.72071
G1 X133.185 Y125.795 E2.75254
G1 X134.223 Y127.469 E2.81805
G1 X134.679 Y128.316 E2.85005
G1 X135.501 Y130.101 E2.91541
G1 X135.85 Y131.003 E2.94758
G1 X136.447 Y132.883 E3.01318
G1 X136.679 Y133.802 E3.04471
G1 X137.044 Y135.742 E3.11037
G1 X137.163 Y136.704 E3.14261
G1 X137.284 Y138.667 E3.20802
G1 X137.284 Y139.623 E3.23982
G1 X137.164 Y141.587 E3.30526
G1 X137.046 Y142.546 E3.3374
G1 X136.683 Y144.486 E3.40304
G1 X136.453 Y145.402 E3.43446
G1 X135.86 Y147.278 E3.49989
G1 X135.507 Y148.191 E3.53245
G1 X134.681 Y149.984 E3.59811
G1 X134.231 Y150.823 E3.62978
G1 X133.197 Y152.495 E3.69516
G1 X132.64 Y153.282 E3.72723
G1 X131.405 Y154.817 E3.79276
G1 X130.762 Y155.523 E3.82452
G1 X129.349 Y156.895 E3.89002
G1 X128.617 Y157.522 E3.92208
G1 X127.038 Y158.715 E3.9879
G1 X126.239 Y159.245 E4.01979
G1 X124.545 Y160.224 E4.08487
G1 X123.691 Y160.65 E4.11661
G1 X121.871 Y161.423 E4.18238
G1 X120.955 Y161.747 E4.21469
G1 X119.066 Y162.284 E4.28001
G1 X118.101 Y162.493 E4.31285
G1 X117.9 Y162.523 E4.31961
G1 X116.143 Y162.797 E4.37876
G1 X115.355 Y162.878 E4.4051
G1 X114.915 Y162.898 E4.41975
G1 X113.181 Y162.942 E4.47744
G1 X112.259 Y162.911 E4.50813
G1 X110.327 Y162.731 E4.57266
G1 X109.381 Y162.584 E4.60451
G1 X107.46 Y162.163 E4.66991
G1 X106.544 Y161.903 E4.70158
G1 X104.68 Y161.248 E4.7673
G1 X103.79 Y160.872 E4.79943
G1 X102.028 Y159.995 E4.86489
G1 X101.196 Y159.514 E4.89686
G1 X99.554 Y158.426 E4.96237
G1 X98.789 Y157.849 E4.99424
G1 X97.293 Y156.568 E5.05975
G1 X96.606 Y155.903 E5.09155
G1 X95.28 Y154.451 E5.15695
G1 X94.676 Y153.701 E5.18898
G1 X93.535 Y152.091 E5.25461
G1 X93.026 Y151.269 E5.28677
G1 X92.094 Y149.532 E5.35233
G1 X91.694 Y148.663 E5.38415
G1 X90.983 Y146.829 E5.44957
G1 X90.694 Y145.92 E5.4813
G1 X90.211 Y144.008 E5.54689
G1 X90.032 Y143.059 E5.57901
G1 X89.79 Y141.11 E5.64433
G1 X89.731 Y140.153 E5.67622
G1 X89.73 Y138.177 E5.74194
G1 X89.788 Y137.221 E5.7738
G1 X90.028 Y135.27 E5.83918
G1 X90.206 Y134.317 E5.87142
G1 X90.688 Y132.403 E5.93707
G1 X90.978 Y131.492 E5.96887
G1 X91.688 Y129.658 E6.03428
G1 X92.09 Y128.785 E6.06625
G1 X93.023 Y127.047 E6.13186
G1 X93.523 Y126.238 E6.16349
G1 X94.661 Y124.626 E6.22912
G1 X95.269 Y123.869 E6.26141
G1 X96.591 Y122.419 E6.32667
G1 X97.281 Y121.75 E6.35864
G1 X98.779 Y120.467 E6.42424
G1 X99.539 Y119.892 E6.45594
G1 X101.181 Y118.802 E6.52149
G1 X102.011 Y118.322 E6.55338
G1 X103.77 Y117.444 E6.61876
G1 X104.657 Y117.069 E6.65079
G1 X104.138 Y116.648 E6.67302
G1 X103.443 Y116.011 E6.70438
G1 X102.361 Y114.892 E6.75615
G1 X101.771 Y114.207 E6.78622
G1 X100.843 Y112.993 E6.83704
G1 X100.329 Y112.23 E6.86764
G1 X99.571 Y110.95 E6.91712
G1 X99.146 Y110.124 E6.94802
G1 X98.49 Y108.637 E7.00207
G1 X98.159 Y107.744 E7.03375
G1 X97.719 Y106.287 E7.08437
G1 X97.543 Y105.588 E7.10834
G1 X97.464 Y105.192 E7.12177
G1 X97.241 Y103.957 E7.16351
G1 X97.129 Y103.008 E7.1953
G1 X97.04 Y101.423 E7.2481
G1 X97.04 Y100.55 E7.27713
G1 X97.128 Y98.978 E7.3295
G1 X97.245 Y98.003 E7.36216
G1 X97.51 Y96.562 E7.41089
G1 X97.719 Y95.7 E7.44039
G1 X98.171 Y94.216 E7.49199
G1 X98.493 Y93.349 E7.52275
G1 X99.132 Y91.896 E7.57555
G1 X99.564 Y91.055 E7.60699
G1 X100.335 Y89.756 E7.65723
G1 X100.851 Y88.993 E7.68787
G1 X101.788 Y87.77 E7.73911
G0 F6000 X102.106 Y88.014
G1 F1200 X102.662 Y87.368 E7.76746
G1 X103.739 Y86.255 E7.81897
G1 X104.404 Y85.647 E7.84894
G1 X105.579 Y84.697 E7.8992
G1 X106.291 Y84.188 E7.92831
G1 X107.564 Y83.387 E7.97833
G1 X108.267 Y82.996 E8.00509
G1 X109.718 Y82.29 E8.05876
G1 X110.604 Y81.928 E8.09059
G1 X112.048 Y81.444 E8.14125
G1 X112.898 Y81.214 E8.17053
G1 X114.35 Y80.913 E8.21985
G1 X114.98 Y80.811 E8.24108
G1 X115.536 Y80.747 E8.2597
G1 X116.757 Y80.636 E8.30047
G1 X117.63 Y80.609 E8.32952
G1 X119.159 Y80.651 E8.3804
G1 X120.071 Y80.732 E8.41085
G1 X121.633 Y80.97 E8.4634
G1 X122.468 Y81.148 E8.4918
G1 X123.837 Y81.522 E8.539
G1 X124.64 Y81.791 E8.56717
G1 X126.177 Y82.407 E8.62224
G1 X127.015 Y82.806 E8.65311
G1 X128.379 Y83.563 E8.705
G1 X129.132 Y84.042 E8.73468
G1 X130.362 Y84.934 E8.78521
G1 X131.009 Y85.461 E8.81297
G1 X132.026 Y86.39 E8.85878
G1 X132.599 Y86.975 E8.88602
G1 X133.718 Y88.251 E8.94247
G1 X134.307 Y89.019 E8.97466
G1 X135.167 Y90.306 E9.02614
G1 X135.585 Y91.014 E9.05349
G1 X136.266 Y92.329 E9.10274
G1 X136.625 Y93.137 E9.13215
G1 X137.114 Y94.443 E9.17853
G1 X137.353 Y95.204 E9.20506
G1 X137.761 Y96.799 E9.25982
G1 X137.94 Y97.761 E9.29236
G1 X138.137 Y99.422 E9.348
G1 X138.189 Y100.3 E9.37725
G1 X138.188 Y101.619 E9.42112
G1 X138.176 Y102.043 E9.43523
G1 X138.156 Y102.387 E9.44669
G1 X138.117 Y102.825 E9.46131
G1 X137.971 Y104.061 E9.50271
G1 X137.827 Y104.881 E9.5304
G1 X137.45 Y106.49 E9.58537
G1 X137.185 Y107.371 E9.61596
G1 X136.683 Y108.727 E9.66406
G1 X136.328 Y109.535 E9.69341
G1 X135.627 Y110.902 E9.74451
G1 X135.219 Y111.601 E9.77143
G1 X134.348 Y112.921 E9.82403
G1 X133.865 Y113.572 E9.85099
G1 X133.647 Y113.832 E9.86227
G1 X132.817 Y114.796 E9.90458
G1 X132.239 Y115.396 E9.93229
G1 X131.039 Y116.508 E9.9867
G1 X130.338 Y117.082 E10.01684
G1 X129.1 Y117.975 E10.06761
G1 X128.34 Y118.455 E10.09751
G1 X126.976 Y119.206 E10.1493
G1 X126.255 Y119.551 E10.17588
G1 X126.796 Y119.909 E10.19746
G1 X128.372 Y121.101 E10.26318
G1 X129.055 Y121.686 E10.29309
G1 X130.468 Y123.054 E10.3585
G1 X131.085 Y123.73 E10.38894
G1 X132.32 Y125.264 E10.45445
G1 X132.845 Y126.005 E10.48465
G1 X133.883 Y127.679 E10.55016
G1 X134.316 Y128.484 E10.58056
G1 X135.138 Y130.269 E10.64593
G1 X135.469 Y131.124 E10.67642
G1 X136.066 Y133.004 E10.74203
G1 X136.285 Y133.876 E10.77193
G1 X136.65 Y135.816 E10.83759
G1 X136.764 Y136.729 E10.86819
G1 X136.885 Y138.692 E10.9336
G1 X136.885 Y139.598 E10.96374
G1 X136.765 Y141.562 E11.02918
G1 X136.653 Y142.472 E11.05968
G1 X136.29 Y144.412 E11.12532
G1 X136.072 Y145.281 E11.15512
G1 X135.479 Y147.157 E11.22056
G1 X135.144 Y148.023 E11.25144
G1 X134.318 Y149.816 E11.3171
G1 X133.891 Y150.612 E11.34714
G1 X132.857 Y152.284 E11.41253
G1 X132.329 Y153.031 E11.44296
G1 X131.094 Y154.566 E11.50848
G1 X130.483 Y155.236 E11.53864
G1 X129.07 Y156.608 E11.60415
G1 X128.376 Y157.203 E11.63455
G1 X126.797 Y158.396 E11.70037
G1 X126.039 Y158.899 E11.73063
G1 X124.345 Y159.878 E11.79571
G1 X123.535 Y160.282 E11.82581
G1 X121.715 Y161.055 E11.89158
G1 X120.845 Y161.362 E11.92226
G1 X118.956 Y161.899 E11.98758
G1 X118.042 Y162.097 E12.01869
G1 X117.838 Y162.128 E12.02555
G1 X116.081 Y162.401 E12.08469
G1 X115.334 Y162.479 E12.10967
G1 X114.905 Y162.499 E12.12395
G1 X113.171 Y162.543 E12.18165
G1 X112.297 Y162.513 E12.21073
G1 X110.365 Y162.333 E12.27527
G1 X109.467 Y162.193 E12.3055
G1 X107.546 Y161.772 E12.37091
G1 X106.677 Y161.526 E12.40095
G1 X104.813 Y160.871 E12.46666
G1 X103.969 Y160.514 E12.49714
G1 X102.207 Y159.637 E12.5626
G1 X101.417 Y159.181 E12.59294
G1 X99.775 Y158.093 E12.65845
G1 X99.049 Y157.545 E12.68871
G1 X97.553 Y156.264 E12.75421
G1 X96.902 Y155.633 E12.78437
G1 X95.576 Y154.181 E12.84977
G1 X95.002 Y153.47 E12.88016
G1 X93.861 Y151.86 E12.94579
G1 X93.378 Y151.08 E12.97631
G1 X92.446 Y149.343 E13.04187
G1 X92.067 Y148.519 E13.07204
G1 X91.356 Y146.685 E13.13746
G1 X91.081 Y145.822 E13.16759
G1 X90.598 Y143.91 E13.23318
G1 X90.429 Y143.01 E13.26363
G1 X90.187 Y141.061 E13.32896
G1 X90.131 Y140.153 E13.35921
G1 X90.13 Y138.177 E13.42494
G1 X90.185 Y137.27 E13.45516
G1 X90.425 Y135.319 E13.52054
G1 X90.594 Y134.415 E13.55113
G1 X91.076 Y132.501 E13.61677
G1 X91.351 Y131.636 E13.64696
G1 X92.061 Y129.802 E13.71237
G1 X92.442 Y128.974 E13.74269
G1 X93.375 Y127.236 E13.8083
G1 X93.85 Y126.468 E13.83833
G1 X94.988 Y124.856 E13.90396
G1 X95.565 Y124.138 E13.9346
G1 X96.887 Y122.688 E13.99986
G1 X97.541 Y122.054 E14.03016
G1 X99.039 Y120.771 E14.09576
G1 X99.76 Y120.226 E14.12582
G1 X101.402 Y119.136 E14.19137
G1 X102.19 Y118.68 E14.22165
G1 X103.949 Y117.802 E14.28704
G1 X104.797 Y117.443 E14.31766
G1 X105.464 Y117.208 E14.34118
G1 X104.39 Y116.337 E14.38718
G1 X103.73 Y115.733 E14.41693
G1 X102.648 Y114.614 E14.4687
G1 X102.089 Y113.964 E14.49722
G1 X101.161 Y112.75 E14.54804
G1 X100.673 Y112.027 E14.57705
G1 X99.915 Y110.747 E14.62653
G1 X99.512 Y109.963 E14.65585
G1 X98.856 Y108.476 E14.70991
G1 X98.542 Y107.628 E14.73998
G1 X98.102 Y106.171 E14.79061
G1 X97.935 Y105.508 E14.81335
G1 X97.858 Y105.121 E14.82647
G1 X97.635 Y103.886 E14.86821
G1 X97.529 Y102.986 E14.89835
G1 X97.44 Y101.401 E14.95115
G1 X97.44 Y100.572 E14.97873
G1 X97.528 Y99 E15.03109
G1 X97.638 Y98.076 E15.06204
G1 X97.903 Y96.635 E15.11077
G1 X98.102 Y95.817 E15.13877
G1 X98.554 Y94.333 E15.19037
G1 X98.859 Y93.51 E15.21956
G1 X99.498 Y92.057 E15.27236
G1 X99.908 Y91.259 E15.3022
G1 X100.679 Y89.96 E15.35244
G1 X101.169 Y89.237 E15.38149
G1 X102.106 Y88.014 E15.43273
G0 F6000 X102.423 Y88.257
G1 F1200 X102.95 Y87.646 E15.45957
G1 X104.027 Y86.533 E15.51108
G1 X104.656 Y85.958 E15.53942
G1 X105.831 Y85.008 E15.58968
G1 X106.504 Y84.526 E15.61721
G1 X107.777 Y83.725 E15.66724
G1 X108.442 Y83.356 E15.69253
G1 X109.893 Y82.65 E15.7462
G1 X110.731 Y82.307 E15.77632
G1 X112.175 Y81.823 E15.82697
G1 X112.979 Y81.606 E15.85467
G1 X114.431 Y81.305 E15.90399
G1 X115.027 Y81.208 E15.92408
G1 X115.572 Y81.146 E15.94232
G1 X116.793 Y81.035 E15.9831
G1 X117.619 Y81.009 E16.01058
G1 X119.148 Y81.051 E16.06146
G1 X120.01 Y81.128 E16.09024
G1 X121.572 Y81.366 E16.14279
G1 X122.363 Y81.533 E16.16968
G1 X123.732 Y81.907 E16.21688
G1 X124.491 Y82.162 E16.24352
G1 X126.028 Y82.778 E16.29859
G1 X126.821 Y83.155 E16.32779
G1 X128.185 Y83.912 E16.37968
G1 X128.898 Y84.366 E16.40779
G1 X130.128 Y85.258 E16.45833
G1 X130.739 Y85.757 E16.48457
G1 X131.756 Y86.686 E16.53038
G1 X132.298 Y87.239 E16.55613
G1 X133.417 Y88.515 E16.61258
G1 X133.974 Y89.241 E16.64302
G1 X134.834 Y90.528 E16.6945
G1 X135.23 Y91.198 E16.72038
G1 X135.911 Y92.513 E16.76964
G1 X136.251 Y93.277 E16.79745
G1 X136.74 Y94.583 E16.84383
G1 X136.966 Y95.303 E16.86893
G1 X137.374 Y96.898 E16.92369
G1 X137.543 Y97.809 E16.95451
G1 X137.74 Y99.47 E17.01014
G1 X137.789 Y100.299 E17.03776
G1 X137.788 Y101.618 E17.08163
G1 X137.776 Y102.019 E17.09498
G1 X137.756 Y102.363 E17.10644
G1 X137.72 Y102.778 E17.12029
G1 X137.574 Y104.014 E17.16169
G1 X137.437 Y104.79 E17.1879
G1 X137.06 Y106.399 E17.24286
G1 X136.81 Y107.232 E17.27179
G1 X136.308 Y108.588 E17.31988
G1 X135.972 Y109.352 E17.34764
G1 X135.271 Y110.719 E17.39873
G1 X134.885 Y111.38 E17.42419
G1 X134.014 Y112.7 E17.47679
G1 X133.557 Y113.316 E17.5023
G1 X133.344 Y113.571 E17.51336
G1 X132.514 Y114.535 E17.55566
G1 X131.967 Y115.102 E17.58187
G1 X130.767 Y116.214 E17.63628
G1 X130.104 Y116.757 E17.66479
G1 X128.866 Y117.65 E17.71556
G1 X128.147 Y118.105 E17.74386
G1 X126.783 Y118.856 E17.79565
G1 X126.055 Y119.204 E17.82248
G1 X125.372 Y119.483 E17.84702
G1 X125.829 Y119.747 E17.86458
G1 X126.555 Y120.228 E17.89354
G1 X128.131 Y121.42 E17.95926
G1 X128.777 Y121.974 E17.98757
G1 X130.19 Y123.342 E18.05298
G1 X130.774 Y123.981 E18.08177
G1 X132.009 Y125.515 E18.14728
G1 X132.505 Y126.216 E18.17584
G1 X133.543 Y127.89 E18.24135
G1 X133.952 Y128.651 E18.27008
G1 X134.774 Y130.436 E18.33545
G1 X135.088 Y131.245 E18.36431
G1 X135.685 Y133.125 E18.42992
G1 X135.892 Y133.95 E18.45821
G1 X136.257 Y135.89 E18.52386
G1 X136.365 Y136.753 E18.55279
G1 X136.486 Y138.716 E18.6182
G1 X136.486 Y139.574 E18.64674
G1 X136.366 Y141.538 E18.71219
G1 X136.26 Y142.398 E18.74101
G1 X135.897 Y144.338 E18.80665
G1 X135.69 Y145.161 E18.83488
G1 X135.097 Y147.037 E18.90032
G1 X134.781 Y147.856 E18.92951
G1 X133.955 Y149.649 E18.99517
G1 X133.551 Y150.402 E19.02359
G1 X132.517 Y152.074 E19.08898
G1 X132.017 Y152.78 E19.11775
G1 X130.782 Y154.315 E19.18328
G1 X130.204 Y154.949 E19.21182
G1 X128.791 Y156.321 E19.27732
G1 X128.135 Y156.884 E19.30607
G1 X126.556 Y158.077 E19.3719
G1 X125.839 Y158.553 E19.40052
G1 X124.145 Y159.532 E19.4656
G1 X123.378 Y159.914 E19.49409
G1 X121.558 Y160.687 E19.55986
G1 X120.736 Y160.977 E19.58885
G1 X118.847 Y161.514 E19.65417
G1 X117.982 Y161.702 E19.68361
G1 X117.751 Y161.737 E19.69138
G1 X116.02 Y162.006 E19.74965
G1 X115.313 Y162.079 E19.77329
G1 X114.895 Y162.099 E19.78721
G1 X113.161 Y162.143 E19.8449
G1 X112.334 Y162.115 E19.87242
G1 X110.402 Y161.935 E19.93696
G1 X109.552 Y161.803 E19.96557
G1 X107.631 Y161.382 E20.03098
G1 X106.809 Y161.148 E20.0594
G1 X104.945 Y160.493 E20.12511
G1 X104.147 Y160.156 E20.15393
G1 X102.385 Y159.279 E20.21939
G1 X101.638 Y158.847 E20.24809
G1 X99.996 Y157.759 E20.3136
G1 X99.309 Y157.241 E20.34222
G1 X97.813 Y155.96 E20.40773
G1 X97.197 Y155.363 E20.43626
G1 X95.871 Y153.911 E20.50166
